X: 4372
T: The DOWNFALL OF PARIS
%R: air, march
B: James Kerr "Merry Melodies" v.4 p.40 #372
Z: 2016 John Chambers <jc:trillian.mit.edu>
M: 2/4
L: 1/16
K: G
|:\
G2GA G2GA | G2GA (cB)AG |\
A2AB A2AB | A2AB (dc)BA |\
[1 B2Bc B2Bc | B2Bc (ed)cB |\
A2AB A2AB | AGFE DEFD :|\
[2 B2Bc d2c2 | B2Bc d2c2 |
B2Bc A2AB | G2G2G2z2 H|:\
d4 d4- | d2B2e2d2 |\
c2cB c2cB | c2cB c4 |\
c4 c4- | c2A2d2c2 |\
B2BA B2BA | B2BA B4 :|
|:\
defg fedc | Bcde dcBA |\
G2G2A2A2 |[1 B2B2 A4 :|[2 G2B2G2z2 |:\
F2G2A2B2 | c2B2A2G2 |\
F2G2A2B2 |[1 c2B2 A4 :|[2 cdBc A2"_D.C."D2 |]

%%sep 1 1 500
%%sep 1 1 500

